X:1
T: The Entertainer
M: 4/4
L: 1/4
Q:1/4=180
K:C
D^DE2|C'EC'2|EC'2C'|D'^D'E'C'|D'E'2B|D'2C'2|
D^DE2|C'EC'2|EC'2A|G^FAC'|E'2D'C'|A2D'2|
D^DE2|C'EC'2|EC'2C'|D'^D'E'C'|D'E'2B|D'2C'2|
C'D'E'C'|D'E'2 C'|D'C'E'C'|D'E'2C'|D'C'E'C'|D'E'2B|D'2C'2|

